X:1
T:James Gibb editions
T:O salutaris hostia - del la Rue
T:#
%%score [ 1 2 3 4 ]
L:1/8
Q:1/4=90
M:4/4
K:Ab
V:1 treble nm="Soprano"
V:2 treble nm="Alto"
V:3 treble-8 nm="Tenor"
V:4 bass nm="Bass"
V:1
"^Pierre De La Rue\n(c.1465-1518)""^O salutaris hostia" c4 | c2 c2 B2 c2 | B2 A2 G2 z (c- | %3
w: O|sa- lu- ta- ris|ho- sti- a, ho\-|
w: U-|ni tri- no- que|Do- mi- no, Do\-|
 cB/A/) (c>d) e4 | c4 d4 |[M:4/4] c4 B4 | B4 A4 | (A3 G/F/) G4 | c4 c2 c2 | c4 (e3 d/c/ | %10
w: * * * sti\- * a,|Quae coe-|li pan-|dis o-|sti\- * * um,|Bel- la pre-|munt ho\- * *|
w: * * * mi\- * no,|Sit sem-|pi- ter-|na glo-|ri\- * * a:|Qui vi- tam|si- ne * *|
 Bc) (d2- d2 c2- | cB B2 c3) A | A4 c4 | c4 A2 F2 | (d3 B) B2 (e2- | edcB A2) (d2- | %16
w: * * sti\- * *|* * * * li-|a: Da|ro- bur, da|ro\- * bur, fer,|* * * * * fer|
w: * * ter\- * *|* * * * mi-|no No-|bis do- net,|do\- * net in,|* * * * * in|
 dc) (BA) (G>F) G2 | A4 :| %18
w: * * au\- * xi\- * li-|um.|
w: * * * * pa\- * tri-|a.|
V:2
 c4 | A2 A2 G2 A2 | G2 F2 G2 z (c | AG/F/) A2 G4 | A4 A4 |[M:4/4] A4 F4 | G4 F4 | F4 E4 | %8
w: O|sa- lu- ta- ris|ho- sti- a, ho\-|* * * sti- a,|Quae coe-|li pan-|dis o-|sti- um,|
w: U-|ni tri- no- que|Do- mi- no, Do\-|* * * mi- no,|Sit sem-|pi- ter-|na glo-|ri- a:|
 A4 F2 (A2- | AG/F/ EF) G4 | G2 (A2- A4 | F2 G2 E3) F | F4 A4 | G4 F2 (A2- | AG/F/) (AB) G4 | %15
w: Bel- la pre\-|* * * * * munt|ho- sti\- *|* * * li-|a: Da|ro\-- bur, da|* * * ro\- * bur,|
w: Qui vi- tam|* * * * * si-|ne ter\- *|* * * mi-|no No-|bis do- net,|* * * do\- * net|
 ((A3 G) (FEDE)) | F4 E4 | E4 :| %18
w: fer * au\- * * *|xi- li-|um.|
w: in * * * * *|pa- tri-|a.|
V:3
 e4- | e4 e2 e2 | e2 c2 e4 | f4 e4 | e4 f4 |[M:4/4][K:treble-8] e4 d4 | e4 c4 | d4 B4 | z4 c4 | %9
w: O|* sa- lu-|ta- ris ho-|sti- a,|Quae coe-|li pan-|dis o-|sti- um,|Bel-|
w: U\-|* ni tri-|no- que Do-|mi- no,|Sit sem-|pi- ter-|na glo-|ri- a:|Qui|
 c3 (B/A/) B4 | e2 (f2- f2 e2) | d4 c4- | c4 (c4 | e2) e2 f4- | f4 z (e2 d | cB A2) ((a3 g) | %16
w: la pre\- * munt|ho- sti\- * *|li- a,|* Da|* ro- bur,|* fer, *|* * * fer *|
w: vi- tam * si-|ne ter\- * *|mi- no|* No-|bis do- net|* in, *|* * * in *|
 (fedc)) (B>A) B2 | A4 :| %18
w: au\- * * * xi\- * li-|um.|
w: * * * * pa- * tri-|a.|
V:4
 A,4 | A,2 A,2 E,2 A,2 | (E,2 F,2 C4) | F,4 C,4 | A,4 D4 |[M:4/4] A,4 B,4 | E,4 F,4 | D,4 E,4 | %8
w: O|sa- lu- ta- ris|ho\- * *|sti- a,|Quae coe-|li pan-|dis o-|sti- um,|
w: U-|ni tri- no- que|Do\- * *|mi- no,|Sit sem-|pi- ter-|na glo-|ri- a:|
 F,4 F,2 F,2 | (A,3 G,/F,/ E,4) | E,2 (D,2- D,2 A,2 | B,2 G,2 A,>B,) C2 | F,4 F,4 | C,4 (F,3 D,) | %14
w: Bel- la pre-|munt * * *|ho- sti\- * *|* * * * li-|a, Da|ro- bur, *|
w: Qui vi- tam|si\- * * *|ne ter\- * *|* * * * mi-|no No-|bis do\- *|
 D,2 D,2 E,4 | z2 ((A,2- A,G,) (F,E,)) | D,4 E,4 | A,,4 :| %18
w: da ro- bur,|fer * * au\- *|xi- li-|um.|
w: net, do- net|in * * * *|pa- tri-|a.|

